!!!!SEGMENT: pl-cz--ii-245--003_anonim--partita-b-adagio.krn
!!!cenid: 18xx:2488
!!!COM: Anonim
!!!COM-rismid: pe30004985
!!!CDT:
!!!CNT:
!!!OPR: Partita B
!!!OTL: Adagio
!!!OMV: 003
!!!PDT:
!!!AGN: Secular; Partita
!!!SMS-siglum: PL-CZ
!!!SMS-shelfmark: II-245
!!!SMS-shelfwork: 001-003 M
!!!SMS-variant:
!!!SMS-altvar:
!!!NIFC-rismid: 1001012549
!!!URL-scan: http://repozytorium.nifc.pl/skany/pl-cz-nut--ii-245
!!!ONB-nifc: UWAGA: części Partity: 1. Andante, 2. Allegro, 3. Adagio, 4. Polo
**kern	**dynam	**kern	**dynam	**kern	**kern	**dynam	**kern
*part5	*part5	*part4	*part4	*part3	*part2	*part2	*part1
*staff5	*	*staff4	*	*staff3	*staff2	*	*staff1
*Icor	*	*Icor	*	*Ifagot	*Iclars	*	*Iclars
*I"Corno 2do in B.	*	*I"Corno 1mo in B.	*	*I"[Fagotto]	*I"Clarinetto 2do	*	*I"[Clarinetto Primo]
*I'cor 2	*	*I'cor 1	*	*I'fag	*I'cl 2	*	*I'cl 1
*>[A,A,B,B]	*	*>[A,A,B,B]	*	*>[A,A,B,B]	*>[A,A,B,B]	*	*>[A,A,B,B]
*clefG2	*	*clefG2	*	*clefF4	*clefG2	*	*clefG2
*ITrd1c2	*	*ITrd1c2	*	*	*ITrd1c2	*	*ITrd1c2
*k[b-e-]	*	*k[b-e-]	*	*k[b-e-]	*k[b-e-]	*	*k[b-e-]
*B-:	*	*B-:	*	*B-:	*B-:	*	*B-:
*M3/4	*	*M3/4	*	*M3/4	*M3/4	*	*M3/4
=1	=1	=1	=1	=1	=1	=1	=1
*>A	*	*>A	*	*>A	*>A	*	*>A
*	*	*	*	*	*2\right	*	*
!LO:TX:a:t=1	!	!LO:TX:a:t=1	!	!LO:TX:t=P:problem:brak większości partii fag, źródło wybrakowane albo skan niepełny	!LO:TX:a:i:t=Adagio	!LO:DY:rj:t=p&colon;	!LO:TX:t=P:problem:brak partii, źródło wybrakowane albo skan niepełny
2.r	.	2.r	.	2.ryy	(2dd\	p	2.ryy
.	.	.	.	.	8b-/L	<	.
.	.	.	.	.	8f/J)	.	.
=2	=2	=2	=2	=2	=2	=2	=2
*2\right	*	*2\right	*	*	*	*	*
!	!LO:HP:t=cres&colon;	!	!LO:HP:t=cres	!	!	!	!
(2dd\	<	2ff\	<	2.ryy	8d/L	.	2.ryy
.	.	.	.	.	8B-/	.	.
.	.	.	.	.	8d/	.	.
.	.	.	.	.	8B-/	.	.
4b-\)	.	(8dd\L	.	.	8d/	.	.
.	.	8b-\J)	.	.	8B-/J	.	.
=3	=3	=3	=3	=3	=3	=3	=3
(>2.B-/	.	(2.b-\	.	2.ryy	8B-/L	.	2.ryy
.	.	.	.	.	(8e-/	.	.
!	!	!	!	!	!	!LO:HP:t=cres&colon;	!
.	.	.	.	.	8g/	<	.
.	.	.	.	.	8b-/	.	.
.	.	.	.	.	8ee-/	.	.
.	.	.	.	.	8gg/J)	.	.
=4	=4	=4	=4	=4	=4	=4	=4
2.b-\)	.	8r)	.	2.ryy	8dd/L	f	2.ryy
.	.	8dd\L	.	.	(8b-/	.	.
.	.	8ff\	.	.	8f/	.	.
.	.	8dd\	.	.	8d/)	.	.
.	.	8bb-\	.	.	8B-/	.	.
.	.	8dd\J	.	.	8d/J	.	.
=5	=5	=5	=5	=5	=5	=5	=5
!	!LO:DY:t=fp&colon;	!	!	!	!	!	!
2.f/	fp	2.cc\	fp	2.ryy	16F/LL	.	2.ryy
.	.	.	.	.	16c/	fp	.
.	.	.	.	.	16A/	.	.
.	.	.	.	.	16c/JJ	.	.
*	*	*	*	*	*rep	*	*
.	.	.	.	.	16F/LL	.	.
.	.	.	.	.	16c/	.	.
.	.	.	.	.	16A/	.	.
.	.	.	.	.	16c/JJ	.	.
*	*	*	*	*	*Xrep	*	*
*	*	*	*	*	*rep	*	*
.	.	.	.	.	16F/LL	.	.
.	.	.	.	.	16c/	.	.
.	.	.	.	.	16A/	.	.
.	.	.	.	.	16c/JJ	.	.
*	*	*	*	*	*Xrep	*	*
!LO:LB:g=original	!	!LO:LB:g=original	!	!	!LO:LB:g=original	!	!
=6	=6	=6	=6	=6	=6	=6	=6
!	!LO:DY:t=fp&colon;	!	!	!	!	!	!
2.b-\	fp	2.dd\	fp	2.ryy	(8dd\L	fp	2.ryy
.	.	.	.	.	8b-\)	.	.
.	.	.	.	.	8b-'\	.	.
.	.	.	.	.	8b-'\J	.	.
!	!	!	!	!	!	!LO:DY:t=mf&colon;	!
.	.	.	.	.	(8.b-\L	mf	.
.	.	.	.	.	32cc\LL	.	.
.	.	.	.	.	32dd\JJJ)	.	.
=7	=7	=7	=7	=7	=7	=7	=7
4r	.	4r	.	2.ryy	8ee-\L	.	2.ryy
.	.	.	.	.	8dd\	.	.
4r	.	4r	.	.	(8cc#X\	.	.
.	.	.	.	.	8dd\	.	.
(8cc\L	.	(8cc\L	.	.	8cc\)	.	.
8b-\J)	.	8dd\J)	.	.	8b-\J	.	.
=8	=8	=8	=8	=8	=8	=8	=8
*2\left	*	*	*	*	*2\left	*	*
(2b-\	.	(2dd\	.	2.ryy	(2b-\	.	2.ryy
4a\)	.	4cc\)	.	.	4a\)	.	.
=9:|!|:	=9:|!|:	=9:|!|:	=9:|!|:	=9:|!|:	=9:|!|:	=9:|!|:	=9:|!|:
*>B	*	*>B	*	*>B	*>B	*	*>B
4cc\	.	4cc\	.	2.ryy	16B-/LL	fp	2.ryy
.	.	.	.	.	16c/	.	.
.	.	.	.	.	16B-/	.	.
.	.	.	.	.	16c/JJ	.	.
*	*	*	*	*	*rep	*	*
4r	.	4r	.	.	16B-/LL	.	.
.	.	.	.	.	16c/	.	.
.	.	.	.	.	16B-/	.	.
.	.	.	.	.	16c/JJ	.	.
*	*	*	*	*	*Xrep	*	*
*	*	*	*	*	*rep	*	*
4r	.	4r	.	.	16B-/LL	.	.
.	.	.	.	.	16c/	.	.
.	.	.	.	.	16B-/	.	.
.	.	.	.	.	16c/JJ	.	.
*	*	*	*	*	*Xrep	*	*
=10	=10	=10	=10	=10	=10	=10	=10
!LO:TX:a:t=1	!	!LO:TX:a:t=1	!	!	!	!	!
2.r	.	2.r	.	2.ryy	16F/LL	.	2.ryy
.	.	.	.	.	16c/	.	.
.	.	.	.	.	16A/	.	.
.	.	.	.	.	16c/JJ	.	.
.	.	.	.	.	16A/LL	.	.
.	.	.	.	.	16c/	.	.
.	.	.	.	.	16A/	.	.
.	.	.	.	.	16c/JJ	.	.
*	*	*	*	*	*rep	*	*
.	.	.	.	.	16A/LL	.	.
.	.	.	.	.	16c/	.	.
.	.	.	.	.	16A/	.	.
.	.	.	.	.	16c/JJ	.	.
*	*	*	*	*	*Xrep	*	*
!	!	!	!	!	!LO:LB:g=original	!	!
=11	=11	=11	=11	=11	=11	=11	=11
*2\right	*	*	*	*	*	*	*
2cc\	.	2cc\	.	2.ryy	16B-/LL	.	2.ryy
.	.	.	.	.	16c/	.	.
.	.	.	.	.	16B-/	.	.
.	.	.	.	.	16c/JJ	.	.
*	*	*	*	*	*rep	*	*
.	.	.	.	.	16B-/LL	.	.
.	.	.	.	.	16c/	.	.
.	.	.	.	.	16B-/	.	.
.	.	.	.	.	16c/JJ	.	.
*	*	*	*	*	*Xrep	*	*
*	*	*	*	*	*rep	*	*
4r	.	4r	.	.	16B-/LL	.	.
.	.	.	.	.	16c/	.	.
.	.	.	.	.	16B-/	.	.
.	.	.	.	.	16c/JJ	.	.
*	*	*	*	*	*Xrep	*	*
=12	=12	=12	=12	=12	=12	=12	=12
!LO:TX:a:t=2.	!	!LO:TX:a:t=2.	!	!	!	!	!
!LO:N:vis=0	!	!LO:N:vis=0	!	!	!	!	!
1.r	.	1.r	.	2.ryy	16F/LL	.	2.ryy
.	.	.	.	.	16c/	.	.
.	.	.	.	.	16A/	.	.
.	.	.	.	.	16c/JJ	.	.
.	.	.	.	.	8A/L	.	.
.	.	.	.	.	(8f/	.	.
.	.	.	.	.	8eX/	.	.
.	.	.	.	.	8f/J)	.	.
=13	=13	=13	=13	=13	=13	=13	=13
*	*	*	*	*	*2\right	*	*
.	.	.	.	2.ryy	(2dd\	<	2.ryy
.	.	.	.	.	8b-\L	.	.
.	.	.	.	.	8f\J)	.	.
!LO:LB:g=original	!	!	!	!	!	!	!
=14	=14	=14	=14	=14	=14	=14	=14
(2dd\	.	(2ff\	<	2.ryy	(8d/L	.	2.ryy
.	.	.	.	.	8B-/)	.	.
.	.	.	.	.	(8d/	.	.
.	.	.	.	.	8B-/)	.	.
4b-\)	.	8dd\L	.	.	(8d/	.	.
.	.	8b-\J)	.	.	8B-/J)	.	.
!	!	!LO:LB:g=original	!	!	!	!	!
=15	=15	=15	=15	=15	=15	=15	=15
!	!	!	!	!	!	!LO:DY:t=for	!
2b-\	.	2b-\	.	2.ryy	2.f/	f	2.ryy
4r	.	4r	.	.	.	.	.
!	!	!	!	!	!LO:LB:g=original	!	!
=16	=16	=16	=16	=16	=16	=16	=16
!LO:TX:a:t=3.	!	!LO:TX:a:t=3.	!	!	!	!	!
!LO:N:vis=0	!	!LO:N:vis=0	!	!	!	!	!
1.r	.	1.r	.	2.ryy	8e-/	.	2.ryy
.	.	.	.	.	8r	.	.
.	.	.	.	.	8r	.	.
.	.	.	.	.	4r	.	.
.	.	.	.	.	(8bX\	.	.
=17	=17	=17	=17	=17	=17	=17	=17
.	.	.	.	2.ryy	8cc\)	.	2.ryy
.	.	.	.	.	(8bX\L	.	.
.	.	.	.	.	8cc\J)	.	.
.	.	.	.	.	(8f#X/L	.	.
.	.	.	.	.	8g/J)	.	.
.	.	.	.	.	((8d/	.	.
=18	=18	=18	=18	=18	=18	=18	=18
2.r	.	2.r	.	2.ryy	8e-/L))	.	2.ryy
.	.	.	.	.	8f/	.	.
.	.	.	.	.	8e-/	.	.
.	.	.	.	.	8d/	.	.
.	.	.	.	.	8c/J	.	.
.	.	.	.	.	8r	.	.
=19	=19	=19	=19	=19	=19	=19	=19
8b-\L	.	8dd\L	.	4B-X\	8r	.	2.ryy
8dd\	.	8ff\	.	.	8dd'\L	.	.
8dd\	.	8ff\	.	4f\	8dd'\	.	.
8dd\J	.	8ff\J	.	.	8dd'\J	.	.
4cc\	.	4ff\	.	4F\	(16dd\LL	.	.
.	.	.	.	.	16cc\	.	.
.	.	.	.	.	16b-\	.	.
.	.	.	.	.	16a\JJ)	.	.
=20	=20	=20	=20	=20	=20	=20	=20
(2cc\	.	2ff\	.	4B-\	(2a\	.	2.ryy
.	.	.	.	4F\	.	.	.
4b-\)	.	4ff\	.	4BB-/	4b-\)	.	.
=21:|!	=21:|!	=21:|!	=21:|!	=21:|!	=21:|!	=21:|!	=21:|!
*-	*-	*-	*-	*-	*-	*-	*-
!!!system-decoration: [(s1,s2,s3)],[(s4,s5)]
!!!AIN: 2 clars 2 cor 1 fagot
!!!ENC: Andrzej Gręziak
!!!RDF**dynam: < = cres.
!!!END: 2021-06-17
!!!RDF**kern: > = above
!!!RDF**kern: < = below
!!!EED: Andrzej Borzym
!!!EST: 2021-06-23
